X: 33330
T: Quayside, The
R: hornpipe
M: 4/4
K: Amajor
|:(3efg|a2 (3ABc e2 (3EFG|A2A,C EAce|d2fd c2ec|Bbba gefg|
a2 (3ABc e2 (3EFG|A2A,C EAce|dfed cBAG|B2A2 A2:|
|:cd|ecAa fdBb|gefg a2ag|f2fe dcBA|GBe^d efge|
a2ag f2fe|dcBA GFED|CEAd cBAG|B2A2 A2:|

